icons/window/window-sidebar-right-boxes.svg

<svg width="14" height="14" viewBox="0 0 14 14" fill="none"
    xmlns="http://www.w3.org/2000/svg">
    <path d="M8 3.5H3C2.44772 3.5 2 3.94772 2 4.5V9.5C2 10.0523 2.44772 10.5 3 10.5H8M8 3.5H11C11.5523 3.5 12 3.94772 12 4.5V9.5C12 10.0523 11.5523 10.5 11 10.5H8M8 3.5V10.5" stroke="red" stroke-linejoin="round"/>
    <path d="M10.5 9H9.5V8.5H10.5V9Z" stroke="green" stroke-linecap="round" stroke-linejoin="round"/>
    <path d="M10.5 7.25H9.5V6.75H10.5V7.25Z" stroke="green" stroke-linecap="round" stroke-linejoin="round"/>
    <path d="M10.5 5.5H9.5V5H10.5V5.5Z" stroke="green" stroke-linecap="round" stroke-linejoin="round"/>
</svg>

<svg xmlns="http://www.w3.org/2000/svg" width="14" height="14" fill="none" viewBox="0 0 14 14"><path stroke="red" stroke-linejoin="round" d="M8 3.5H3a1 1 0 0 0-1 1v5a1 1 0 0 0 1 1h5m0-7h3a1 1 0 0 1 1 1v5a1 1 0 0 1-1 1H8m0-7v7"/><path stroke="green" stroke-linecap="round" stroke-linejoin="round" d="M10.5 9h-1v-.5h1zm0-1.75h-1v-.5h1zm0-1.75h-1V5h1z"/></svg>
